proprietary/assets/icons/beeld-en-geluid/film-projector.svg

<svg enable-background="new 0 0 64 64" viewBox="0 0 64 64" xmlns="http://www.w3.org/2000/svg"><path d="m30.3483 30.6205c.001.0011.0019.0023.003.0035.4426.5664.9407 1.0872 1.4861 1.5547.0504.0439.1016.0864.1526.1291.001.0008.0019.0015.0028.0023 1.7581 1.4709 3.8967 2.3318 6.3001 2.4464l.0016.0002c.0873.0042.1749.0077.2629.01.0965.0026.1932.004.2903.004.0904 0 .1805-.0011.2704-.0035.0306-.0006.061-.0023.0914-.0032.0591-.0019.1182-.0039.1771-.0068.0369-.0018.0736-.0044.1103-.0066.0522-.0031.1045-.006.1565-.01.0397-.0029.0791-.0064.1186-.0098.0487-.0042.0973-.0082.1458-.013.0416-.0041.0828-.0088.1243-.0134.046-.0051.0922-.0101.138-.0158.0429-.0053.0856-.0111.1282-.0169.044-.0059.0881-.0119.132-.0184s.0877-.0136.1315-.0205c.042-.0068.0841-.0137.126-.0209.045-.0078.0901-.016.1351-.0244.0399-.0075.0798-.015.1196-.0229.0464-.0092.0926-.0187.1388-.0283.0378-.008.0755-.0163.113-.0248.0478-.0106.0955-.0215.1428-.0328.0354-.0084.0705-.0169.1058-.0257.0494-.0123.0986-.0247.1478-.0376.0322-.0085.0644-.0174.0966-.0262.0516-.014.103-.0283.1542-.0431.0285-.0083.0568-.0169.0852-.0253.0546-.0164.109-.0328.1632-.0499.0232-.0073.046-.015.0692-.0225.0589-.019.1178-.0382.1761-.0583.0153-.0052.0304-.0107.0456-.0161.0662-.0229.132-.0462.1974-.0703l.0006-.0003c4.5316-1.6776 7.6274-6.3148 6.9395-11.5652-.6247-4.768-4.4901-8.6194-9.26-9.2288-6.3369-.8097-11.7713 3.8899-12.1727 9.9647-.2437.1336-.5233.2101-.8208.2101-.2668 0-.5178-.0627-.7423-.1719-1.2812-3.6916-4.9985-6.2445-9.2285-5.7336-3.7339.451-6.8192 3.3807-7.4321 7.0914-.4124 2.4966.2481 4.838 1.5938 6.6365v.0455c.2418.3046.504.5927.7838.863 1.5637 1.5782 3.7322 2.5561 6.1293 2.5561 1.0573 0 2.0701-.1906 3.0062-.5386 1.5818-.5433 2.9555-1.5325 4.0519-2.8898.8297-.1838-.8147 3.1795-4.3408 4.317-3.6781 1.1862-7.0527.7212-10.0961-1.6598v16c0 1.3146.6854 2 2 2h31c1.3147 0 2-.6853 2-2v-15c-3.2757 2.1799-6.3911 2.2406-10.3744.9385-4.2865-1.4017-6.2858-5.5441-5.2773-5.318zm-4.7597-3.2995c0 .9996-.8101 1.8092-1.8089 1.8092-.9994 0-1.8093-.8095-1.8093-1.8092 0-.9987.8099-1.8092 1.8093-1.8092.9988 0 1.8089.8105 1.8089 1.8092zm-8.3198-1.1798c0-.6122.4968-1.1094 1.1099-1.1094.6133 0 1.1103.4972 1.1103 1.1094 0 .6135-.497 1.1102-1.1103 1.1102-.6131.0001-1.1099-.4967-1.1099-1.1102zm5.44-5.3269c.9992 0 1.8093.8103 1.8093 1.8098 0 .998-.8101 1.8087-1.8093 1.8087s-1.8092-.8107-1.8092-1.8087c-.0001-.9994.8099-1.8098 1.8092-1.8098zm-.0919 10.2537c0 .9991-.81 1.8094-1.8094 1.8094-.9991 0-1.8093-.8103-1.8093-1.8094 0-.9987.8103-1.8089 1.8093-1.8089.9994 0 1.8094.8103 1.8094 1.8089zm-4.2366-12.3398c.9991 0 1.8093.8098 1.8093 1.8092 0 .9992-.8103 1.8099-1.8093 1.8099-.9994 0-1.8093-.8107-1.8093-1.8099 0-.9994.8099-1.8092 1.8093-1.8092zm-.6088 12.3398c0 .9991-.8103 1.8094-1.8093 1.8094-.9995 0-1.8093-.8103-1.8093-1.8094 0-.9987.8098-1.8089 1.8093-1.8089.999 0 1.8093.8103 1.8093 1.8089zm-3.7384-10.2537c.9992 0 1.8093.8098 1.8093 1.8087 0 .9992-.8102 1.8088-1.8093 1.8088-.9994 0-1.8095-.8096-1.8095-1.8088 0-.9988.8101-1.8087 1.8095-1.8087zm-1.0615 4.6887c.9996 0 1.8096.81 1.8096 1.8092 0 .9987-.8101 1.8088-1.8096 1.8088-.999 0-1.809-.8102-1.809-1.8088 0-.9992.81-1.8092 1.809-1.8092zm13.4217 3.8413c.0004-.001.0008-.0022.0013-.0033v.0033zm21.3903-4.44c.4062 1.6825-1.071 3.1601-2.7536 2.7545-.7883-.19-1.4352-.8351-1.6277-1.6228-.412-1.6858 1.0715-3.17 2.7578-2.7587.7878.1922 1.4332.8388 1.6235 1.627zm-4.0911-7.4954c1.6834-.4063 3.1612 1.0724 2.754 2.7559-.1907.7885-.8368 1.4349-1.6251 1.6263-1.6861.4094-3.1674-1.0734-2.7564-2.7585.1922-.788.839-1.4334 1.6275-1.6237zm.3797 12.1743c.4068 1.6828-1.0702 3.1609-2.7535 2.7556-.7885-.1899-1.4356-.8351-1.628-1.623-.4118-1.686 1.0709-3.17 2.7572-2.7593.7881.1919 1.4338.8383 1.6243 1.6267zm-5.2245-4.2027c-.7657 0-1.3864-.6207-1.3864-1.386 0-.7655.6206-1.3865 1.3864-1.3865.7657 0 1.3864.621 1.3864 1.3865 0 .7653-.6208 1.386-1.3864 1.386zm-.5631-10.5762c1.6843-.4078 3.1646 1.072 2.7561 2.7559-.1913.7885-.8378 1.4349-1.6263 1.6261-1.6845.4085-3.1644-1.0722-2.756-2.7564.1912-.7885.8377-1.4347 1.6262-1.6256zm-.2644 14.7759c.4094 1.6848-1.07 3.1655-2.7548 2.758-.7884-.1907-1.4351-.8364-1.6268-1.6246-.4094-1.6834 1.0684-3.1647 2.7536-2.7584.7891.1902 1.4364.8363 1.628 1.625zm-5.1672-12.1704c1.6847-.4103 3.1667 1.0698 2.7582 2.7554-.1911.7885-.8376 1.4349-1.6261 1.6257-1.6839.4076-3.163-1.0705-2.7563-2.7541.1904-.7884.8361-1.435 1.6242-1.627zm-1.3227 5.8547c1.685-.4082 3.1645 1.0733 2.7553 2.7574-.1915.7883-.8381 1.4343-1.6266 1.625-1.6841.4074-3.1641-1.0727-2.7554-2.7567.1914-.7884.838-1.4346 1.6267-1.6257z"/><path d="m52.323 34.3191-4.323 2.6809v10l4.3475 2.7939c1.0464.5483 2.6525.3873 2.6525-.7939v-13c0-1.1815-1.6173-2.2024-2.677-1.6809z"/></svg>

<?xml version="1.0" encoding="utf-8"?>
<!-- Generator: Adobe Illustrator 19.2.0, SVG Export Plug-In . SVG Version: 6.00 Build 0)  -->
<svg version="1.0" xmlns="http://www.w3.org/2000/svg" xmlns:xlink="http://www.w3.org/1999/xlink" x="0px" y="0px"
	 viewBox="0 0 64 64" enable-background="new 0 0 64 64" xml:space="preserve">
<g id="achtergrond">
</g>
<g id="paneel_1">
	<g>
		<path d="M30.3483,30.6205c0.001,0.0011,0.0019,0.0023,0.003,0.0035c0.4426,0.5664,0.9407,1.0872,1.4861,1.5547
			c0.0504,0.0439,0.1016,0.0864,0.1526,0.1291c0.001,0.0008,0.0019,0.0015,0.0028,0.0023c1.7581,1.4709,3.8967,2.3318,6.3001,2.4464
			l0.0016,0.0002c0.0873,0.0042,0.1749,0.0077,0.2629,0.01c0.0965,0.0026,0.1932,0.004,0.2903,0.004
			c0.0904,0,0.1805-0.0011,0.2704-0.0035c0.0306-0.0006,0.061-0.0023,0.0914-0.0032c0.0591-0.0019,0.1182-0.0039,0.1771-0.0068
			c0.0369-0.0018,0.0736-0.0044,0.1103-0.0066c0.0522-0.0031,0.1045-0.006,0.1565-0.01c0.0397-0.0029,0.0791-0.0064,0.1186-0.0098
			c0.0487-0.0042,0.0973-0.0082,0.1458-0.013c0.0416-0.0041,0.0828-0.0088,0.1243-0.0134c0.046-0.0051,0.0922-0.0101,0.138-0.0158
			c0.0429-0.0053,0.0856-0.0111,0.1282-0.0169c0.044-0.0059,0.0881-0.0119,0.132-0.0184c0.0439-0.0065,0.0877-0.0136,0.1315-0.0205
			c0.042-0.0068,0.0841-0.0137,0.126-0.0209c0.045-0.0078,0.0901-0.016,0.1351-0.0244c0.0399-0.0075,0.0798-0.015,0.1196-0.0229
			c0.0464-0.0092,0.0926-0.0187,0.1388-0.0283c0.0378-0.008,0.0755-0.0163,0.113-0.0248c0.0478-0.0106,0.0955-0.0215,0.1428-0.0328
			c0.0354-0.0084,0.0705-0.0169,0.1058-0.0257c0.0494-0.0123,0.0986-0.0247,0.1478-0.0376
			c0.0322-0.0085,0.0644-0.0174,0.0966-0.0262c0.0516-0.014,0.103-0.0283,0.1542-0.0431c0.0285-0.0083,0.0568-0.0169,0.0852-0.0253
			c0.0546-0.0164,0.109-0.0328,0.1632-0.0499c0.0232-0.0073,0.046-0.015,0.0692-0.0225c0.0589-0.019,0.1178-0.0382,0.1761-0.0583
			c0.0153-0.0052,0.0304-0.0107,0.0456-0.0161c0.0662-0.0229,0.132-0.0462,0.1974-0.0703l0.0006-0.0003
			c4.5316-1.6776,7.6274-6.3148,6.9395-11.5652c-0.6247-4.768-4.4901-8.6194-9.26-9.2288
			c-6.3369-0.8097-11.7713,3.8899-12.1727,9.9647c-0.2437,0.1336-0.5233,0.2101-0.8208,0.2101
			c-0.2668,0-0.5178-0.0627-0.7423-0.1719c-1.2812-3.6916-4.9985-6.2445-9.2285-5.7336c-3.7339,0.451-6.8192,3.3807-7.4321,7.0914
			c-0.4124,2.4966,0.2481,4.838,1.5938,6.6365v0.0455c0.2418,0.3046,0.504,0.5927,0.7838,0.863
			c1.5637,1.5782,3.7322,2.5561,6.1293,2.5561c1.0573,0,2.0701-0.1906,3.0062-0.5386c1.5818-0.5433,2.9555-1.5325,4.0519-2.8898
			c0.8297-0.1838-0.8147,3.1795-4.3408,4.317C17.418,36.846,14.0434,36.381,11,34v16c0,1.3146,0.6854,2,2,2h31
			c1.3147,0,2-0.6853,2-2V35c-3.2757,2.1799-6.3911,2.2406-10.3744,0.9385C31.3391,34.5368,29.3398,30.3944,30.3483,30.6205z
			 M25.5886,27.321c0,0.9996-0.8101,1.8092-1.8089,1.8092c-0.9994,0-1.8093-0.8095-1.8093-1.8092
			c0-0.9987,0.8099-1.8092,1.8093-1.8092C24.7785,25.5118,25.5886,26.3223,25.5886,27.321z M17.2688,26.1412
			c0-0.6122,0.4968-1.1094,1.1099-1.1094c0.6133,0,1.1103,0.4972,1.1103,1.1094c0,0.6135-0.497,1.1102-1.1103,1.1102
			C17.7656,27.2515,17.2688,26.7547,17.2688,26.1412z M22.7088,20.8143c0.9992,0,1.8093,0.8103,1.8093,1.8098
			c0,0.998-0.8101,1.8087-1.8093,1.8087c-0.9992,0-1.8092-0.8107-1.8092-1.8087C20.8995,21.6247,21.7095,20.8143,22.7088,20.8143z
			 M22.6169,31.068c0,0.9991-0.81,1.8094-1.8094,1.8094c-0.9991,0-1.8093-0.8103-1.8093-1.8094
			c0-0.9987,0.8103-1.8089,1.8093-1.8089C21.8069,29.2591,22.6169,30.0694,22.6169,31.068z M18.3803,18.7282
			c0.9991,0,1.8093,0.8098,1.8093,1.8092c0,0.9992-0.8103,1.8099-1.8093,1.8099c-0.9994,0-1.8093-0.8107-1.8093-1.8099
			C16.571,19.538,17.3809,18.7282,18.3803,18.7282z M17.7715,31.068c0,0.9991-0.8103,1.8094-1.8093,1.8094
			c-0.9995,0-1.8093-0.8103-1.8093-1.8094c0-0.9987,0.8098-1.8089,1.8093-1.8089C16.9612,29.2591,17.7715,30.0694,17.7715,31.068z
			 M14.0331,20.8143c0.9992,0,1.8093,0.8098,1.8093,1.8087c0,0.9992-0.8102,1.8088-1.8093,1.8088
			c-0.9994,0-1.8095-0.8096-1.8095-1.8088C12.2236,21.6242,13.0337,20.8143,14.0331,20.8143z M12.9716,25.503
			c0.9996,0,1.8096,0.81,1.8096,1.8092c0,0.9987-0.8101,1.8088-1.8096,1.8088c-0.999,0-1.809-0.8102-1.809-1.8088
			C11.1626,26.313,11.9726,25.503,12.9716,25.503z M26.3933,29.3443c0.0004-0.001,0.0008-0.0022,0.0013-0.0033v0.0033H26.3933z
			 M47.7836,24.9043c0.4062,1.6825-1.071,3.1601-2.7536,2.7545c-0.7883-0.19-1.4352-0.8351-1.6277-1.6228
			c-0.412-1.6858,1.0715-3.17,2.7578-2.7587C46.9479,23.4695,47.5933,24.1161,47.7836,24.9043z M43.6925,17.4089
			c1.6834-0.4063,3.1612,1.0724,2.754,2.7559c-0.1907,0.7885-0.8368,1.4349-1.6251,1.6263
			c-1.6861,0.4094-3.1674-1.0734-2.7564-2.7585C42.2572,18.2446,42.904,17.5992,43.6925,17.4089z M44.0722,29.5832
			c0.4068,1.6828-1.0702,3.1609-2.7535,2.7556c-0.7885-0.1899-1.4356-0.8351-1.628-1.623c-0.4118-1.686,1.0709-3.17,2.7572-2.7593
			C43.236,28.1484,43.8817,28.7948,44.0722,29.5832z M38.8477,25.3805c-0.7657,0-1.3864-0.6207-1.3864-1.386
			c0-0.7655,0.6206-1.3865,1.3864-1.3865c0.7657,0,1.3864,0.621,1.3864,1.3865C40.2341,24.7598,39.6133,25.3805,38.8477,25.3805z
			 M38.2846,14.8043c1.6843-0.4078,3.1646,1.072,2.7561,2.7559c-0.1913,0.7885-0.8378,1.4349-1.6263,1.6261
			c-1.6845,0.4085-3.1644-1.0722-2.756-2.7564C36.8496,15.6414,37.4961,14.9952,38.2846,14.8043z M38.0202,29.5802
			c0.4094,1.6848-1.07,3.1655-2.7548,2.758c-0.7884-0.1907-1.4351-0.8364-1.6268-1.6246c-0.4094-1.6834,1.0684-3.1647,2.7536-2.7584
			C37.1813,28.1454,37.8286,28.7915,38.0202,29.5802z M32.853,17.4098c1.6847-0.4103,3.1667,1.0698,2.7582,2.7554
			c-0.1911,0.7885-0.8376,1.4349-1.6261,1.6257c-1.6839,0.4076-3.163-1.0705-2.7563-2.7541
			C31.4192,18.2484,32.0649,17.6018,32.853,17.4098z M31.5303,23.2645c1.685-0.4082,3.1645,1.0733,2.7553,2.7574
			c-0.1915,0.7883-0.8381,1.4343-1.6266,1.625c-1.6841,0.4074-3.1641-1.0727-2.7554-2.7567
			C30.095,24.1018,30.7416,23.4556,31.5303,23.2645z"/>
		<path d="M52.323,34.3191L48,37v10l4.3475,2.7939C53.3939,50.3422,55,50.1812,55,49V36C55,34.8185,53.3827,33.7976,52.323,34.3191z
			"/>
	</g>
</g>
</svg>
